dice-1-outline.svg

<svg fill="currentColor" viewBox="0 0 24 24"><path d="M19 5v14H5V5zm0-2H5c-1.1 0-2 .9-2 2v14a2 2 0 0 0 2 2h14c1.11 0 2-.89 2-2V5a2 2 0 0 0-2-2m-7 7.5c-.83 0-1.5.67-1.5 1.5s.67 1.5 1.5 1.5 1.5-.67 1.5-1.5-.67-1.5-1.5-1.5"/></svg>

<svg  viewBox="0 0 24 24" fill="currentColor"><path  d="M19 5V19H5V5H19M19 3H5C3.9 3 3 3.9 3 5V19C3 20.11 3.9 21 5 21H19C20.11 21 21 20.11 21 19V5C21 3.9 20.11 3 19 3M12 10.5C11.17 10.5 10.5 11.17 10.5 12S11.17 13.5 12 13.5 13.5 12.83 13.5 12 12.83 10.5 12 10.5"/></svg>
